src/assets/diamonds_9.svg

<?xml version="1.0" encoding="UTF-8"?>
<svg xmlns="http://www.w3.org/2000/svg" xmlns:xlink="http://www.w3.org/1999/xlink" width="99px" height="140px" viewBox="0 0 99 140" version="1.1">
<g id="surface1">
<path style="fill-rule:nonzero;fill:rgb(100%,100%,100%);fill-opacity:1;stroke-width:0.755906;stroke-linecap:butt;stroke-linejoin:miter;stroke:rgb(50.196078%,50.196078%,50.196078%);stroke-opacity:1;stroke-miterlimit:4;" d="M 9.297585 719.743103 L 224.702415 719.743103 C 229.632812 719.743103 233.621449 723.747651 233.621449 728.681329 L 233.621449 1043.042991 C 233.621449 1047.976669 229.632812 1051.981217 224.702415 1051.981217 L 9.297585 1051.981217 C 4.367188 1051.981217 0.378551 1047.976669 0.378551 1043.042991 L 0.378551 728.681329 C 0.378551 723.747651 4.367188 719.743103 9.297585 719.743103 Z M 9.297585 719.743103 " transform="matrix(0.423077,0,0,0.42042,0,-302.434542)"/>
<path style=" stroke:none;fill-rule:nonzero;fill:rgb(100%,0%,0%);fill-opacity:1;" d="M 24.804688 39.820312 L 36.753906 27.90625 L 24.804688 15.992188 L 12.855469 27.90625 Z M 24.804688 39.820312 "/>
<path style=" stroke:none;fill-rule:nonzero;fill:rgb(100%,0%,0%);fill-opacity:1;" d="M 24.804688 124.007812 L 36.753906 112.09375 L 24.804688 100.179688 L 12.855469 112.09375 Z M 24.804688 124.007812 "/>
<path style=" stroke:none;fill-rule:nonzero;fill:rgb(100%,0%,0%);fill-opacity:1;" d="M 24.804688 95.945312 L 36.753906 84.03125 L 24.804688 72.117188 L 12.855469 84.03125 Z M 24.804688 95.945312 "/>
<path style=" stroke:none;fill-rule:nonzero;fill:rgb(100%,0%,0%);fill-opacity:1;" d="M 24.804688 67.882812 L 36.753906 55.96875 L 24.804688 44.054688 L 12.855469 55.96875 Z M 24.804688 67.882812 "/>
<path style=" stroke:none;fill-rule:nonzero;fill:rgb(100%,0%,0%);fill-opacity:1;" d="M 74.195312 39.820312 L 86.144531 27.90625 L 74.195312 15.992188 L 62.246094 27.90625 Z M 74.195312 39.820312 "/>
<path style=" stroke:none;fill-rule:nonzero;fill:rgb(100%,0%,0%);fill-opacity:1;" d="M 74.195312 124.007812 L 86.144531 112.09375 L 74.195312 100.179688 L 62.246094 112.09375 Z M 74.195312 124.007812 "/>
<path style=" stroke:none;fill-rule:nonzero;fill:rgb(100%,0%,0%);fill-opacity:1;" d="M 74.195312 95.945312 L 86.144531 84.03125 L 74.195312 72.117188 L 62.246094 84.03125 Z M 74.195312 95.945312 "/>
<path style=" stroke:none;fill-rule:nonzero;fill:rgb(100%,0%,0%);fill-opacity:1;" d="M 74.195312 67.882812 L 86.144531 55.96875 L 74.195312 44.054688 L 62.246094 55.96875 Z M 74.195312 67.882812 "/>
<path style=" stroke:none;fill-rule:nonzero;fill:rgb(100%,0%,0%);fill-opacity:1;" d="M 49.5 81.914062 L 61.449219 70 L 49.5 58.085938 L 37.550781 70 Z M 49.5 81.914062 "/>
<path style=" stroke:none;fill-rule:nonzero;fill:rgb(100%,0%,0%);fill-opacity:1;" d="M 7.277344 25.789062 L 11.261719 21.816406 L 7.277344 17.847656 L 3.296875 21.816406 Z M 7.277344 25.789062 "/>
<path style=" stroke:none;fill-rule:nonzero;fill:rgb(100%,0%,0%);fill-opacity:1;" d="M 91.722656 114.210938 L 95.703125 118.183594 L 91.722656 122.152344 L 87.738281 118.183594 Z M 91.722656 114.210938 "/>
<path style=" stroke:none;fill-rule:nonzero;fill:rgb(100%,0%,0%);fill-opacity:1;" d="M 11.261719 9.066406 C 11.261719 10.761719 10.964844 12.140625 10.371094 13.203125 C 9.628906 14.53125 8.484375 15.199219 6.9375 15.199219 C 6.035156 15.199219 5.289062 15.019531 4.699219 14.65625 C 3.988281 14.210938 3.632812 13.554688 3.632812 12.691406 C 3.632812 12.5 3.765625 12.40625 4.027344 12.40625 L 5.214844 12.40625 C 5.367188 12.40625 5.5 12.496094 5.605469 12.671875 C 5.765625 12.9375 5.890625 13.109375 5.976562 13.183594 C 6.195312 13.363281 6.515625 13.453125 6.9375 13.453125 C 7.648438 13.453125 8.203125 13.117188 8.597656 12.445312 C 8.910156 11.90625 9.082031 11.238281 9.121094 10.449219 C 8.496094 10.953125 7.746094 11.203125 6.875 11.203125 C 5.765625 11.203125 4.882812 10.808594 4.226562 10.019531 C 3.605469 9.277344 3.296875 8.335938 3.296875 7.191406 C 3.296875 5.988281 3.636719 5.039062 4.316406 4.339844 C 4.996094 3.636719 5.925781 3.285156 7.105469 3.285156 C 9.878906 3.285156 11.261719 5.214844 11.261719 9.066406 Z M 9.074219 7.242188 C 9.074219 6.652344 8.914062 6.148438 8.597656 5.738281 C 8.25 5.285156 7.796875 5.054688 7.234375 5.054688 C 6.65625 5.054688 6.199219 5.277344 5.855469 5.722656 C 5.546875 6.128906 5.390625 6.632812 5.390625 7.242188 C 5.390625 7.859375 5.542969 8.367188 5.847656 8.765625 C 6.179688 9.207031 6.640625 9.425781 7.234375 9.425781 C 7.824219 9.425781 8.285156 9.203125 8.613281 8.757812 C 8.917969 8.359375 9.074219 7.851562 9.074219 7.242188 Z M 9.074219 7.242188 "/>
<path style=" stroke:none;fill-rule:nonzero;fill:rgb(100%,0%,0%);fill-opacity:1;" d="M 87.738281 130.933594 C 87.738281 129.238281 88.035156 127.859375 88.628906 126.796875 C 89.371094 125.46875 90.515625 124.800781 92.0625 124.800781 C 92.964844 124.800781 93.710938 124.980469 94.300781 125.34375 C 95.011719 125.789062 95.367188 126.445312 95.367188 127.308594 C 95.367188 127.5 95.234375 127.59375 94.972656 127.59375 L 93.785156 127.59375 C 93.632812 127.59375 93.5 127.503906 93.394531 127.328125 C 93.234375 127.0625 93.109375 126.890625 93.023438 126.816406 C 92.804688 126.636719 92.484375 126.546875 92.0625 126.546875 C 91.351562 126.546875 90.796875 126.882812 90.402344 127.554688 C 90.089844 128.09375 89.917969 128.761719 89.878906 129.550781 C 90.503906 129.046875 91.253906 128.796875 92.125 128.796875 C 93.234375 128.796875 94.117188 129.191406 94.773438 129.980469 C 95.394531 130.722656 95.703125 131.664062 95.703125 132.808594 C 95.703125 134.011719 95.363281 134.960938 94.683594 135.660156 C 94.003906 136.363281 93.074219 136.714844 91.894531 136.714844 C 89.121094 136.714844 87.738281 134.785156 87.738281 130.933594 Z M 89.925781 132.757812 C 89.925781 133.347656 90.085938 133.851562 90.402344 134.261719 C 90.75 134.714844 91.203125 134.945312 91.765625 134.945312 C 92.34375 134.945312 92.800781 134.722656 93.144531 134.277344 C 93.453125 133.871094 93.609375 133.367188 93.609375 132.757812 C 93.609375 132.140625 93.457031 131.632812 93.152344 131.234375 C 92.820312 130.792969 92.359375 130.574219 91.765625 130.574219 C 91.175781 130.574219 90.714844 130.796875 90.386719 131.242188 C 90.082031 131.640625 89.925781 132.148438 89.925781 132.757812 Z M 89.925781 132.757812 "/>
</g>
</svg>

<svg xmlns="http://www.w3.org/2000/svg" width="99" height="140"><path d="M9.298 719.743h215.404c4.93 0 8.92 4.005 8.92 8.938v314.362c0 4.934-3.99 8.938-8.92 8.938H9.298c-4.93 0-8.92-4.004-8.92-8.938V728.681c0-4.933 3.99-8.938 8.92-8.938Zm0 0" style="fill-rule:nonzero;fill:#fff;fill-opacity:1;stroke-width:.755906;stroke-linecap:butt;stroke-linejoin:miter;stroke:gray;stroke-opacity:1;stroke-miterlimit:4" transform="matrix(.42308 0 0 .42042 0 -302.435)"/><path d="m24.805 39.82 11.949-11.914-11.95-11.914-11.949 11.914ZM24.805 124.008l11.949-11.914-11.95-11.914-11.949 11.914ZM24.805 95.945l11.949-11.914-11.95-11.914-11.949 11.914ZM24.805 67.883l11.949-11.914-11.95-11.914-11.949 11.914ZM74.195 39.82l11.95-11.914-11.95-11.914-11.949 11.914ZM74.195 124.008l11.95-11.914-11.95-11.914-11.949 11.914ZM74.195 95.945l11.95-11.914-11.95-11.914-11.949 11.914ZM74.195 67.883l11.95-11.914-11.95-11.914-11.949 11.914ZM49.5 81.914 61.45 70 49.5 58.086 37.55 70ZM7.277 25.79l3.985-3.974-3.985-3.968-3.98 3.968ZM91.723 114.21l3.98 3.974-3.98 3.968-3.985-3.968ZM11.262 9.066c0 1.696-.297 3.075-.89 4.137-.743 1.328-1.888 1.996-3.434 1.996-.903 0-1.649-.18-2.239-.543-.71-.445-1.066-1.101-1.066-1.965 0-.191.133-.285.394-.285h1.188c.152 0 .285.09.39.266.16.265.286.437.372.512.218.18.539.27.96.27.711 0 1.266-.337 1.66-1.009.313-.539.485-1.207.524-1.996-.625.504-1.375.754-2.246.754-1.11 0-1.992-.394-2.648-1.183-.622-.743-.93-1.684-.93-2.829 0-1.203.34-2.152 1.02-2.851.68-.703 1.609-1.055 2.788-1.055 2.774 0 4.157 1.93 4.157 5.781ZM9.074 7.242c0-.59-.16-1.094-.476-1.504-.348-.453-.801-.683-1.364-.683-.578 0-1.035.222-1.379.668-.308.406-.464.91-.464 1.52 0 .616.152 1.124.457 1.523.332.441.793.66 1.386.66.59 0 1.051-.223 1.38-.668.304-.399.46-.906.46-1.516ZM87.738 130.934c0-1.696.297-3.075.89-4.137.743-1.328 1.888-1.996 3.434-1.996.903 0 1.649.18 2.239.543.71.445 1.066 1.101 1.066 1.965 0 .191-.133.285-.394.285h-1.188c-.152 0-.285-.09-.39-.266-.16-.266-.286-.437-.372-.512-.218-.18-.539-.27-.96-.27-.711 0-1.266.337-1.66 1.009-.313.539-.485 1.207-.524 1.996.625-.504 1.375-.754 2.246-.754 1.11 0 1.992.394 2.648 1.183.622.743.93 1.684.93 2.829 0 1.203-.34 2.152-1.02 2.851-.68.703-1.609 1.055-2.788 1.055-2.774 0-4.157-1.93-4.157-5.781Zm2.188 1.824c0 .59.16 1.094.476 1.504.348.453.801.683 1.364.683.578 0 1.035-.222 1.379-.668.308-.406.464-.91.464-1.52 0-.616-.152-1.124-.457-1.523-.332-.441-.793-.66-1.386-.66-.59 0-1.051.223-1.38.668-.304.399-.46.906-.46 1.516Zm0 0" style="stroke:none;fill-rule:nonzero;fill:red;fill-opacity:1"/></svg>
